assets/images/anquan.svg

<svg xmlns="http://www.w3.org/2000/svg" preserveAspectRatio="xMidYMid" width="120" height="30" viewBox="0 0 120 30"><defs><style>.cls-1{fill:#0d0d0d;fill-rule:evenodd}</style></defs><path d="M115.289 27.695c-1.719.312-3.79.352-6.211.118-1.954-.158-2.774-1.681-2.461-4.571l.821-11.836V9.531l-1.407.117c-.157 8.127-3.907 14.883-11.25 20.274-.157.077-.274.077-.351 0-.079-.158-.079-.275 0-.352 6.17-4.998 9.217-11.601 9.14-19.804h-.468c-1.172 0-2.15.117-2.93.351l-.938-.937 4.336-.117V7.539c.077-.78.118-1.366.118-1.758 0-1.796-.079-3.319-.235-4.57l3.164 1.055c.311.078.311.274 0 .586l-.351.82c0 1.875-.079 3.633-.235 5.273l6.446-.234 1.64-1.523 1.758 1.757c.156.079.117.196-.117.352l-7.5.234 2.344 1.172c.155 0 .155.079 0 .235l-.469.82-1.758 11.601c-.157 1.095.117 1.681.82 1.758 1.328.235 2.89.196 4.688-.117.703-.234 1.249-.859 1.64-1.875.077-.077.156-.117.235-.117.155.079.194.157.117.234-.157 1.095.077 1.798.703 2.11.78.937.352 1.717-1.289 2.343zm-5.977-21.093c-.157-1.407-.547-2.5-1.171-3.282-.079-.234 0-.311.234-.234 2.265.703 3.398 1.485 3.398 2.344-.078.703-.509 1.25-1.289 1.64-.626.313-1.016.158-1.172-.468zm-10.664 5.156c-.313.234-.547.196-.703-.117-.468-.938-.82-2.031-1.054-3.282v-.351c.077 0 .194.04.351.117 1.562.782 2.382 1.485 2.461 2.109 0 .548-.351 1.055-1.055 1.524zm-2.226-8.555l-.352 16.406.118 5.391c-.314 1.406-.978 2.578-1.993 3.516-.234.155-.43.234-.586.234-.157-.079-.196-.234-.117-.469l.352-9.023.351-14.063-.117-3.867c0-.156.039-.234.117-.234.077 0 .156.04.235.117l2.226 1.055c.156 0 .156.117 0 .351l-.234.586zm-6.68 12.422c-.703-.546-.82-1.132-.351-1.758 1.64-1.014 2.499-3.085 2.578-6.211.155-.234.273-.273.351-.117.703 2.344.78 4.376.235 6.094-.548 1.329-1.485 1.992-2.813 1.992zM78.891 27.93c-2.892-.079-4.181-2.148-3.868-6.211l.235-5.156v-3.282l-.703.117c0 7.5-5.001 12.891-15 16.172-.158.077-.275.039-.352-.117 0-.157.077-.275.234-.351 8.281-3.124 12.422-8.359 12.422-15.704l-6.211.235c-1.406 0-2.46.079-3.164.234l-1.054-.937 10.547-.235c.076-2.109.117-4.53.117-7.265l-3.985.117c-1.406 0-2.461.117-3.164.351l-.937-.937 16.172-.469 1.758-1.758 2.226 1.993.117.234c-.078.079-.157.117-.234.117l-9.258.352c.077 2.735 0 5.156-.234 7.265l8.203-.234 1.64-1.758 2.227 1.992c.077.079.117.158.117.235 0 .078-.079.117-.234.117l-10.664.234 2.695 1.055c.077 0 .156.04.234.117l-.234.234-.586.704-.82 8.086c-.158 1.171.39 1.719 1.64 1.64 2.187.079 3.868 0 5.04-.234 1.014 0 1.796-1.015 2.343-3.047 0-.156.077-.234.235-.234.155.078.234.195.234.351-.157 1.406 0 2.305.469 2.695 1.172 1.017 1.014 1.914-.469 2.696-2.109.78-4.687.976-7.734.586zM55.852 15.625c-4.688-3.437-8.048-7.577-10.079-12.422v.117c-3.515 5.47-8.712 10.43-15.586 14.883-.157.079-.274.079-.351 0 0-.156.038-.273.117-.351 6.015-4.688 10.585-10.39 13.711-17.11l2.93 1.289c.234.079.234.235 0 .469l-.352.352c2.655 4.297 6.991 7.695 13.008 10.195.156.313.156.469 0 .469-1.095.078-2.227.781-3.398 2.109zM28.008 8.359c-1.485-.155-2.891.158-4.219.938-.157.079-.275 0-.352-.234l.938-3.047L7.5 6.602c-.703 2.501-1.992 4.259-3.867 5.273-.235.157-.43.117-.586-.117-.235-1.015-.196-1.679.117-1.992 1.562-1.484 2.382-3.007 2.461-4.571 0-.234.038-.351.117-.351.077 0 .235.04.469.117.311.079.703.43 1.172 1.055l6.679-.235-.117-4.804c0-.156.077-.235.235-.235l3.164 1.055c.234 0 .273.117.117.351-.234.235-.352.704-.352 1.407l-.117 2.109 7.266-.234 1.406-1.055 2.93 3.047c.234.547.038.86-.586.937zM3.633 15.156c.077-.077-.04-.077-.352 0l-1.054-1.054 8.671-.235.235-.469a46.831 46.831 0 0 0 2.344-5.507l3.281 1.523c.234 0 .273.117.117.352l-.82.703-2.344 3.398 10.43-.234 1.992-2.11 2.344 2.227c.076.079.117.157.117.234 0 .079-.079.118-.235.118l-7.851.234 2.226 1.758c.156.157.235.274.235.351 0 .079-.117.158-.352.235-2.032 2.188-3.984 3.984-5.859 5.39 4.609 1.251 7.304 2.306 8.086 3.164.703.782.897 1.718.586 2.813-.158.78-.548.937-1.172.469C21.68 26.718 18.593 25 15 23.359c-2.891 2.033-7.462 4.219-13.711 6.563-.157 0-.275-.04-.352-.117 0-.158.039-.275.118-.352 5.546-2.344 9.569-4.609 12.07-6.797-2.109-.937-3.984-1.64-5.625-2.109l2.93-5.86-3.282.118a67.768 67.768 0 0 0-3.515.351zm5.742 5.039c.469.079 1.172.275 2.109.586 1.249.313 2.227.548 2.93.703 2.186-2.343 4.023-4.687 5.508-7.031l-6.68.117-3.867 5.625zm33.703 1.172h-2.812c-1.095.079-2.15.196-3.164.352l-1.055-.938 7.031-.117v-1.406l-.117-4.805-1.992.117c-1.095 0-2.15.079-3.164.235l-.938-.938 11.719-.351 1.641-1.641 2.109 1.992c.234.158.194.235-.117.235l-7.852.351 1.875.469c.235.079.273.234.117.469-.234.078-.43.468-.586 1.172l-.117 3.984h3.399l1.757-1.641 2.227 1.875c.156.079.117.196-.117.352l-7.266.117-.117 6.094 7.852-.117 1.757-1.641 2.344 1.875c.156.156.156.273 0 .352l-21.68.351a37.863 37.863 0 0 0-3.164.352l-.937-.938 11.367-.234v-5.977z" class="cls-1"/></svg>

<svg xmlns="http://www.w3.org/2000/svg" xmlns:xlink="http://www.w3.org/1999/xlink" preserveAspectRatio="xMidYMid" width="120" height="30" viewBox="0 0 120 30">
  <defs>
    <style>
      .cls-1 {
        fill: #0d0d0d;
        fill-rule: evenodd;
      }
    </style>
  </defs>
  <path d="M115.289,27.695 C113.570,28.007 111.499,28.047 109.078,27.813 C107.124,27.655 106.304,26.132 106.617,23.242 L107.438,11.406 L107.438,9.531 L106.031,9.648 C105.874,17.775 102.124,24.531 94.781,29.922 C94.624,29.999 94.507,29.999 94.430,29.922 C94.351,29.764 94.351,29.647 94.430,29.570 C100.600,24.572 103.647,17.969 103.570,9.766 L103.102,9.766 C101.930,9.766 100.952,9.883 100.172,10.117 L99.234,9.180 L103.570,9.063 C103.570,8.751 103.570,8.242 103.570,7.539 C103.647,6.759 103.688,6.173 103.688,5.781 C103.688,3.985 103.609,2.462 103.453,1.211 L106.617,2.266 C106.928,2.344 106.928,2.540 106.617,2.852 L106.266,3.672 C106.266,5.547 106.187,7.305 106.031,8.945 L112.477,8.711 L114.117,7.188 L115.875,8.945 C116.031,9.024 115.992,9.141 115.758,9.297 L108.258,9.531 L110.602,10.703 C110.757,10.703 110.757,10.782 110.602,10.938 L110.133,11.758 L108.375,23.359 C108.218,24.454 108.492,25.040 109.195,25.117 C110.523,25.352 112.085,25.313 113.883,25.000 C114.586,24.766 115.132,24.141 115.523,23.125 C115.600,23.048 115.679,23.008 115.758,23.008 C115.913,23.087 115.952,23.165 115.875,23.242 C115.718,24.337 115.952,25.040 116.578,25.352 C117.358,26.289 116.930,27.069 115.289,27.695 ZM109.312,6.602 C109.155,5.195 108.765,4.102 108.141,3.320 C108.062,3.086 108.141,3.009 108.375,3.086 C110.640,3.789 111.773,4.571 111.773,5.430 C111.695,6.133 111.264,6.680 110.484,7.070 C109.858,7.383 109.468,7.228 109.312,6.602 ZM98.648,11.758 C98.335,11.992 98.101,11.954 97.945,11.641 C97.477,10.703 97.125,9.610 96.891,8.359 C96.891,8.204 96.891,8.087 96.891,8.008 C96.968,8.008 97.085,8.048 97.242,8.125 C98.804,8.907 99.624,9.610 99.703,10.234 C99.703,10.782 99.352,11.289 98.648,11.758 ZM96.422,3.203 L96.070,19.609 L96.188,25.000 C95.874,26.406 95.210,27.578 94.195,28.516 C93.961,28.671 93.765,28.750 93.609,28.750 C93.452,28.671 93.413,28.516 93.492,28.281 L93.844,19.258 L94.195,5.195 L94.078,1.328 C94.078,1.172 94.117,1.094 94.195,1.094 C94.272,1.094 94.351,1.134 94.430,1.211 L96.656,2.266 C96.812,2.266 96.812,2.383 96.656,2.617 L96.422,3.203 ZM89.742,15.625 C89.039,15.079 88.922,14.493 89.391,13.867 C91.031,12.853 91.890,10.782 91.969,7.656 C92.124,7.422 92.242,7.383 92.320,7.539 C93.023,9.883 93.100,11.915 92.555,13.633 C92.007,14.962 91.070,15.625 89.742,15.625 ZM78.891,27.930 C75.999,27.851 74.710,25.782 75.023,21.719 L75.258,16.563 L75.258,13.281 L74.555,13.398 C74.555,20.898 69.554,26.289 59.555,29.570 C59.397,29.647 59.280,29.609 59.203,29.453 C59.203,29.296 59.280,29.178 59.437,29.102 C67.718,25.978 71.859,20.743 71.859,13.398 L65.648,13.633 C64.242,13.633 63.188,13.712 62.484,13.867 L61.430,12.930 L71.977,12.695 C72.053,10.586 72.094,8.165 72.094,5.430 L68.109,5.547 C66.703,5.547 65.648,5.664 64.945,5.898 L64.008,4.961 L80.180,4.492 L81.938,2.734 L84.164,4.727 L84.281,4.961 C84.203,5.040 84.124,5.078 84.047,5.078 L74.789,5.430 C74.866,8.165 74.789,10.586 74.555,12.695 L82.758,12.461 L84.398,10.703 L86.625,12.695 C86.702,12.774 86.742,12.853 86.742,12.930 C86.742,13.008 86.663,13.047 86.508,13.047 L75.844,13.281 L78.539,14.336 C78.616,14.336 78.695,14.376 78.773,14.453 C78.695,14.532 78.616,14.611 78.539,14.687 L77.953,15.391 L77.133,23.477 C76.975,24.648 77.523,25.196 78.773,25.117 C80.960,25.196 82.641,25.117 83.813,24.883 C84.827,24.883 85.609,23.868 86.156,21.836 C86.156,21.680 86.233,21.602 86.391,21.602 C86.546,21.680 86.625,21.797 86.625,21.953 C86.468,23.359 86.625,24.258 87.094,24.648 C88.266,25.665 88.108,26.562 86.625,27.344 C84.516,28.124 81.938,28.320 78.891,27.930 ZM55.852,15.625 C51.164,12.188 47.804,8.048 45.773,3.203 L45.773,3.320 C42.258,8.790 37.061,13.750 30.187,18.203 C30.030,18.282 29.913,18.282 29.836,18.203 C29.836,18.047 29.874,17.930 29.953,17.852 C35.968,13.164 40.538,7.462 43.664,0.742 L46.594,2.031 C46.828,2.110 46.828,2.266 46.594,2.500 L46.242,2.852 C48.897,7.149 53.233,10.547 59.250,13.047 C59.406,13.360 59.406,13.516 59.250,13.516 C58.155,13.594 57.023,14.297 55.852,15.625 ZM28.008,8.359 C26.523,8.204 25.117,8.517 23.789,9.297 C23.632,9.376 23.514,9.297 23.437,9.063 L24.375,6.016 L7.500,6.602 C6.797,9.103 5.508,10.861 3.633,11.875 C3.398,12.032 3.203,11.992 3.047,11.758 C2.812,10.743 2.851,10.079 3.164,9.766 C4.726,8.282 5.546,6.759 5.625,5.195 C5.625,4.961 5.663,4.844 5.742,4.844 C5.819,4.844 5.977,4.884 6.211,4.961 C6.522,5.040 6.914,5.391 7.383,6.016 L14.062,5.781 L13.945,0.977 C13.945,0.821 14.022,0.742 14.180,0.742 L17.344,1.797 C17.578,1.797 17.617,1.914 17.461,2.148 C17.227,2.383 17.109,2.852 17.109,3.555 L16.992,5.664 L24.258,5.430 L25.664,4.375 L28.594,7.422 C28.828,7.969 28.632,8.282 28.008,8.359 ZM3.633,15.156 C3.710,15.079 3.593,15.079 3.281,15.156 L2.227,14.102 L10.898,13.867 L11.133,13.398 C12.070,11.523 12.850,9.689 13.477,7.891 L16.758,9.414 C16.992,9.414 17.031,9.531 16.875,9.766 L16.055,10.469 L13.711,13.867 L24.141,13.633 L26.133,11.523 L28.477,13.750 C28.553,13.829 28.594,13.907 28.594,13.984 C28.594,14.063 28.515,14.102 28.359,14.102 L20.508,14.336 L22.734,16.094 C22.890,16.251 22.969,16.368 22.969,16.445 C22.969,16.524 22.852,16.603 22.617,16.680 C20.585,18.868 18.633,20.664 16.758,22.070 C21.367,23.321 24.062,24.376 24.844,25.234 C25.547,26.016 25.741,26.952 25.430,28.047 C25.272,28.827 24.882,28.984 24.258,28.516 C21.680,26.718 18.593,25.000 15.000,23.359 C12.109,25.392 7.538,27.578 1.289,29.922 C1.132,29.922 1.014,29.882 0.937,29.805 C0.937,29.647 0.976,29.530 1.055,29.453 C6.601,27.109 10.624,24.844 13.125,22.656 C11.016,21.719 9.141,21.016 7.500,20.547 L10.430,14.687 L7.148,14.805 C6.053,14.883 4.882,15.001 3.633,15.156 ZM9.375,20.195 C9.844,20.274 10.547,20.470 11.484,20.781 C12.733,21.094 13.711,21.329 14.414,21.484 C16.600,19.141 18.437,16.797 19.922,14.453 L13.242,14.570 L9.375,20.195 ZM43.078,21.367 L40.266,21.367 C39.171,21.446 38.116,21.563 37.102,21.719 L36.047,20.781 L43.078,20.664 L43.078,19.258 L42.961,14.453 L40.969,14.570 C39.874,14.570 38.819,14.649 37.805,14.805 L36.867,13.867 L48.586,13.516 L50.227,11.875 L52.336,13.867 C52.570,14.025 52.530,14.102 52.219,14.102 L44.367,14.453 L46.242,14.922 C46.477,15.001 46.515,15.156 46.359,15.391 C46.125,15.469 45.929,15.859 45.773,16.563 L45.656,20.547 L49.055,20.547 L50.812,18.906 L53.039,20.781 C53.195,20.860 53.156,20.977 52.922,21.133 L45.656,21.250 L45.539,27.344 L53.391,27.227 L55.148,25.586 L57.492,27.461 C57.648,27.617 57.648,27.734 57.492,27.813 L35.812,28.164 C34.718,28.241 33.663,28.358 32.648,28.516 L31.711,27.578 L43.078,27.344 L43.078,21.367 Z" class="cls-1"/>
</svg>
